X: 618
T: Tiao cai
L: 1/16
M: 2/4
K: G
d2 d A d2 d A [I:setbarnb 1]| 
d A d e c E D z | 
A2 A B d2 e d | 
A2 c2 c E D z | 
c c2 A c A G E | 
D8 | 
z4d2 d A | 
d A d e c E D z | 
A2 A B d2 e d | 
A2 c2 c E D z | 
c c c d A G E G | 
D8 |]

@@@ Tune index: 9492
